X:1
T:Magnificat sexti toni - Lasso
T:#
%%score [ 1 2 3 4 ]
L:1/8
Q:1/4=130
M:none
K:F
V:1 treble nm="Soprano" snm="S"
V:2 treble nm="Alto" snm="A"
V:3 treble-8 nm="Tenor" snm="T"
V:4 bass nm="Bass" snm="B"
V:1
 x12 | x16 x6 ||"^Magnificat sexti toni""^Orlando di Lasso\n(1530-94)"[Q:1/4=200] F16 | (G8 A8- | %4
w: ||Et|ex\- *|
 A4) A4 A8 |[Q:1/4=200][Q:1/4=200][Q:1/4=200][Q:1/4=200] A4 B8 A4 | A8 (A8 | G8) (G8 | A8) z8 | %9
w: * ul- ta-|vit spi- ri-|tus me\-|* us||
 z8 z4 A4 | A8 A8 | z4 A4 A8 | F8 (G8 | A8) G8 | F16- | F16 || %16
w: in|De- o|sa- lu-|ta- ri|* me-|o.||
[Q:1/4=130][Q:1/4=130][Q:1/4=130][Q:1/4=130] z22 | z20 || %18
w: ||
[M:4/2][Q:1/4=200][Q:1/4=200][Q:1/4=200][Q:1/4=200] A8 (B6 AB | c4) c4 c4 f4- | f4 e4 d4 ^c4 | %21
w: Qui- a * *|* fe- cit mi\-|* hi ma- gna|
 d4 (D2 E2 F2 G2 A4- | A2 G2 G4) (F2 G2 A2 B2 | c2 A2 d8 ^c4) | d4 z2 D2 C4 F4 | %25
w: qui po\- * * * *|* * * tens * * *||est: et san- ctum|
 (F2 G2 A2 D2 E4) (G4- | G2 F2 F8) E4 | F16 ||[Q:1/4=130][Q:1/4=130][Q:1/4=130][Q:1/4=130] z24 | %29
w: no\- * * * * men|* * * e-|ius.||
 z20 ||[Q:1/4=200][Q:1/4=200][Q:1/4=200][Q:1/4=200] A8 G8 | z4 z2 c2 F2 G2 A4 | z4 z2 G2 F2 G2 A4 | %33
w: |Fe- cit|po- ten- ti- am|in bra- chi- o|
 c4 =B4 z2 c2 A4 | B2 B2 G4 A4 d4- | d2 B2 B4 G4 (A4- | A2 G2 F8 E4) | F16 || %38
w: su- o: di- sper-|sit su- per- bos men-|* te cor- dis su\-||i.|
[Q:1/4=130][Q:1/4=130][Q:1/4=130][Q:1/4=130] z22 | z18 || %40
w: ||
[Q:1/4=200][Q:1/4=200][Q:1/4=200][Q:1/4=200] F4 A2 A2 G4 F4 | F4 F2 F2 F4 F2 B2 | A2 A2 G4 ^F8 | %43
w: E- su- ri- en- tes|im- ple- vit bo- nis, im-|ple- vit bo- nis:|
 z2 G2 A2 A2 A4 z2 F2 | F4 F2 F2 G8 | C16 ||[Q:1/4=130][Q:1/4=130][Q:1/4=130][Q:1/4=130] z22 | %47
w: et di- vi- tes di-|mi- sit i- na-|nes.||
 z20 ||[Q:1/4=200][Q:1/4=200][Q:1/4=200][Q:1/4=200] z16 | z16 | z16 | z16 | z16 | z16 || %54
w: |||||||
[M:3/1] x24 |[M:3/1][Q:1/4=400] A12 A4 A8 | B8 B4 B4 G8 |[Q:1/4=393] ^F16[Q:1/4=382] G8 | %58
w: |A- bra- ham|et se- mi- ni|e- ius|
[Q:1/4=376] A8[Q:1/4=369] A8[Q:1/4=363] B8 |[Q:1/4=360] A16 || %60
w: in sae- cu-|la.|
[Q:1/4=130][Q:1/4=130][Q:1/4=130][Q:1/4=130] z20 | z16 || %62
w: ||
[Q:1/4=200][Q:1/4=200][Q:1/4=200][Q:1/4=200] A8 (G6 F2 | E4) F4 E8 | E4 E2 E4 E2 E4 | %65
w: Si- cut *|* e- rat|in prin- ci- pi- o,|
 E4 F4 (F2 G2 A2 B2 | c4) (c8 =B2 A2 | =B2 c4 B2) c4 A4 | G4 A2 A2 c8 | z4 c6 c2 c4 | A8 B8 | %71
w: et nunc, et * * *|* sem\- * *|* * * per, et|in sae- cu- la|sae- cu- lo-|rum. A-|
 c8 z8 | z4 A4 A4 (F4- | F2 G2 A4) G4[Q:1/4=198] (E4- | %74
w: men,|sae- cu- lo\-|* * * rum, A\-|
[Q:1/4=195] E2[Q:1/4=193] C2[Q:1/4=190] F6[Q:1/4=186] E2[Q:1/4=185] E2[Q:1/4=183] D[Q:1/4=183]E | %75
w: |
[Q:1/4=181] F2[Q:1/4=180] G2[Q:1/4=178] A2[Q:1/4=177] D2[Q:1/4=173] B8) |[Q:1/4=170] A16 |] %77
w: |men.|
V:2
 x12 | x16 x6 || C8 (D8 | E8) F4 F4- | F4 F4 E4 F4 | (F6 G2 F2 E2 F4) | F4 E4 z4 F4 | E4 E4 E8 | %8
w: ||Et ex\-|* ul- ta\-|* vit spi- ri-|tus * * * *|me- us, et|ex- ul- ta-|
 F4 F6 F2 F4 | D8 ^C4 E4 | F8 E4 F4 | D4 F4 (F6 ED | C4) D4 E4 (E4- | E2 C2 F8) E4 | D4 C4 D8 | %15
w: vit spi- ri- tus|me- us, in|De- o sa-|lu- ta- ri * *|* me- o, sa\-|* * * lu-|ta- ri me-|
 C16 || z22 | z20 ||[M:4/2] z4 C4 D4 (F4- | F2 ED E4) F4 C4 | D4 E4 F4 E4 | F4 (F2 E2 D2 E2 F4) | %22
w: o.|||Qui- a fe\-|* * * * cit, qui-|a fe- cit mi-|hi ma\- * * * *|
 D4 (D6 E2 F2 D2 | E2 F2 D2 E2 F4) E4 | F8 F4 C4 | C4 A,4 C8- | C4 C4 C8 | C16 || z24 | z20 || %30
w: gna qui * * *|* * * * * po-|tens est: et|san- ctum no\-|* men e-|ius.|||
 F8 E8 | z4 z2 C2 D2 B,2 A,4 | z4 z2 G,2 D2 E2 F4 | E4 D4 z2 E2 F4 | F2 F2 E4 F4 F4- | %35
w: Fe- cit|po- ten- ti- am|in bra- chi- o|su- o: di- sper-|sit su- per- bos men\-|
 F2 F2 D4 D8 | C16 | C16 || z22 | z18 || C4 F2 F2 E4 D4 | D4 D2 D2 C4 D2 F2 | F2 F2 D4 D8 | %43
w: * te cor- dis|su-|i.|||E- su- ri- en- tes|im- ple- vit bo- nis, im-|ple- vit bo- nis:|
 z2 E2 F2 F2 F4 z2 C2 | D4 C2 C2 B,8 | A,16 || z22 | z20 || z16 | z16 | z16 | z16 | z16 | z16 || %54
w: et di- vi- tes di-|mi- sit i- na-|nes.|||||||||
[M:3/1] x24 |[M:3/1] F12 F4 F8 | G8 F4 F4 E8 | D16 D8 | F8 F12 F4 | F16 || z20 | z16 || %62
w: |A- bra- ham|et se- mi- ni|e- ius|in sae- cu-|la.|||
 z4 (C6 =B,A, B,4) | C4 C8 C4 | C4 C4 C6 C2 | C4 A,4 D4 F4 | (E2 D2 E2 F2 G6 FE | D8 C8 | %68
w: Si\- * * *|cut e- rat|in prin- ci- pi-|o, et nunc, et|sem\- * * * * * *|* per,|
 E4 E4 E6 E2 | C4 E4 F4 E4 | C8 z4 D4 | C4 A,4 B,4 G,4 | A,4 C8 C4 | D6 A,2 D4) C4 | C8 D4 z2 C2 | %75
w: et in sae- cu-|la sae- cu- lo-|rum, sae-|cu- lo- rum, A-|men, sae- cu-|lo\- * * rum,|A- men, sae-|
 B,4 A,4 D4 D4 | C16 |] %77
w: cu- lo- rum, A-|men.|
V:3
 F2 G2 A2 A2 A4 | A8 F2 G2 A2 G2 F2 F4 || F8 A4 A4 | c12 c4 | (d4 c2 B2 c4) c4 | d8 d8 | %6
w: Ma- gni\- * fi- cat|anima me- a * Do- mi- num.|Et ex- ul-|ta- vit|spi\- * * * ri-|tus me-|
 c4 c4 c4 c4 | c8 c4 c4- | c2 c2 c4 (B2 A2 A4- | A4 G4) A4 ^c4 | d8 c4 A4 | B4 c4 d4 (c2 B2 | %12
w: us, et ex- ul-|ta- vit spi\-|* ri- tus me\- * *|* * us, in|De- o sa-|u- ta- ri me\- *|
 A2 G2 A2 F2 c8- | c16 | A8 B8) | A16 || F2 G2 A2 A8 G2 A2 F4 | A8 F2 G2 A2 G2 F4 || %18
w: |||o.|Qui- a * respexit~humilitatem~ancil- lae su- ae:|ecce~enim~ex~hoc~beatam~me~dicent~omnes~gene- ra- ti\- * o- nes.|
[M:4/2][K:treble-8] F16 | (G8 A8) | A4 A4 A4 A4 | A8 A8 | B8 A4 (A4- | A4 G4) A8 | z4 A4 A4 A4 | %25
w: Qui-|a *|fe- cit mi- hi|ma- gna|qui po- tens|* * est:|et san- ctum|
 F8 (G8 | A8) G8 | F16 || F2 G2 A2 A8 G2 A2 F2 F4 | A8 F2 G2 A2 G2 F4 || c8 c4 z2 c2 | %31
w: no- men|* e-|ius.|~Et mi\- * sericordia~eius~a~progenie~in pro- ge- ni- es:|timen- ti- bus * e- um.|Fe- cit po-|
 F2 G2 A4 z4 z2 c2 | B2 c2 d4 z2 B2 c2 d2 | G4 G4 G4 z2 c2 | d4 c2 c2 c4 B4 | d6 B2 B4 F4 | %36
w: ten- ti- am in|bra- chi- o, in bra- chi-|o su- o: di-|sper- sit su- per- bos|men- te cor- dis|
 (A8 G8) | F16 || F2 G2 A2 A8 G2 A2 F4 | A4 F2 G2 A2 G2 F2 F4 || A4 c2 c2 c4 A4 | %41
w: su\- *|i.|De- po\- * suit~potentes de se- de,|et~exal- ta- vit * hu- mi- les.|E- su- ri- en- tes|
 B4 B2 B2 A4 B2 d2 | c2 d2 B4 A4 z2 A2 | c2 c2 c4 z2 c2 A2 A2 | B4 (F6 ED E4) | F16 || %46
w: im- ple- vit bo- nis, im-|ple- vit bo- nis: et|di- vi- tes di- mi- sit|i- na\- * * *|nes.|
 F2 G2 A2 A8 G2 A2 F4 | A8 F2 G2 A2 G2 F4 || z8 B8 | (c8 d8) | z4 G4 B4 A4 | G8 z4 A4 | %52
w: Su- sce\- * pit~Israel~pue- rum su- um|recordatus~misericor- di- ae * su- ae.|Si-|cut *|lo- cu- tus|est ad|
 B4 c4 (B2 A2 A4- | A4 G4) A8 ||[M:3/1] x24 |[M:3/1][K:treble-8] c12 c4 c8 | _e8 d4 d4 c8 | %57
w: pa- tres no\- * *|* * stros.||A- bra- ham|et se- mi- ni|
 A16 B8 | c8 d12 d4 | c16 || F2 G2 A2 A4 G2 A2 F2 F4 | A4 F2 G2 A2 G2 F4 || F8 D4 D4 | A8 z4 A4 | %64
w: e- ius|in sae- cu-|la.|Glo- ri\- * a~Patri, et Fi- li- o,|et~Spiri- tu- i * ~San- cto:|Si- cut e-|rat in|
 A2 A4 A2 A8- | A4 c4 B4 c4 | A8 d8 | z4 G4 E4 E2 E2 | c8 z4 A4 | A4 A2 A2 A4 A4 | E4 F4 D4 (G4- | %71
w: prin- ci- pi- o,|* et nunc, et|sem- per,|et in sae- cu-|la, et|in sae- cu- la sae-|cu- lo- rum, A\-|
 G2 F2 F8 E4) | F8 z4 A4 | A4 F4 (G8 | A8) G8 | F16- | F16 |] %77
w: |men, sae-|cu- lo- rum,|* A-|men.||
V:4
 x12 | x16 x6 || F,8 D,8 | C,8 (F,6 E,2 | D,2 E,2 F,2 G,2 A,2 G,2 F,2 E,2 | %5
w: ||Et ex-|ul- ta\- *||
 D,2 C,2 B,,2 G,,2 B,,2 C,2 D,2 E,2 | F,2 G,2 A,4) F,8 | z4 C,6 C,2 C,4 | (F,6 E,2 D,6 C,2 | %9
w: |* * * vit|spi- ri- tus|me\- * * *|
 B,,8) A,,8 | z4 D,4 A,4 D,4 | G,4 F,4 D,4 (F,4- | F,2 E,2 D,4) (C,6 B,,2 | A,,4) F,,4 C,6 C,2 | %14
w: * us,|in De- o|sa- lu- ta- ri|* * * me\- *|* o, sa- lu-|
 D,4 F,4 B,,8 | F,16 || z22 | z20 ||[M:4/2] F,8 B,,4 D,4 | C,8 (F,6 E,2 | D,4) ^C,4 D,4 A,,4 | %21
w: ta- ri me-|o.|||Qui- a fe-|cit mi\- *|* hi ma- gna|
 D,8 D,8 | G,8 D,4 D,4 | A,,4 B,,4 A,,8 | D,8 (F,6 G,2 | A,4) D,4 C,4 E,4 | (F,8 C,8) | F,,16 || %28
w: qui po-|tens est, qui|po- tens est:|et san\- *|* ctum no- men|e\- *|ius.|
 z24 | z20 || F,8 C,4 z2 C,2 | D,2 B,,2 A,,4 z4 z2 F,2 | G,2 A,2 B,4 z2 G,2 F,2 D,2 | %33
w: ||Fe- cit po-|ten- ti- am in|bra- chi- o, in bra- chi-|
 C,4 G,,4 C,4 z2 F,2 | B,,4 C,2 C,2 F,4 B,,4 | B,6 G,2 G,4 D,4 | (A,,6 B,,2 C,8) | F,,16 || z22 | %39
w: o su- o: di-|sper- sit su- per- bos|men- te cor- dis|su\- * *|i.||
 z18 || F,4 F,2 F,2 C,4 D,4 | B,,4 B,,2 B,,2 F,4 B,,2 B,,2 | F,2 D,2 G,4 D,4 z2 D,2 | %43
w: |E- su- ri- en- tes|im- ple- vit bo- nis, im-|ple- vit bo- nis: et|
 C,2 C,2 F,4 z2 F,2 F,4 | B,,4 A,,4 G,,8 | F,,16 || z22 | z20 || F,8 (G,8 | A,8) z4 D,4 | %50
w: di- vi- tes di- mi-|sit i- na-|nes.|||Si- cut|* lo-|
 F,4 E,4 D,8 | z4 E,4 (F,6 E,2 | D,4) C,4 (D,6 C,2 | B,,8) A,,8 ||[M:3/1] x24 | %55
w: cu- tus est|ad pa\- *|* tres no\- *|* stros.||
[M:3/1] F,12 F,4 F,8 | _E,8 B,,4 B,,4 C,8 | D,16 G,8 | F,8 D,8 B,,8 | F,16 || z20 | z16 || %62
w: A- bra- ham|et se- mi- ni|e- ius|in sae- cu-|la.|||
 F,,8 (G,,8 | A,,8) A,,4 A,,4 | z4 A,,4 A,,2 A,,4 A,,2 | A,,4 A,,4 B,,4 A,,4 | (A,,8 G,,8) | %67
w: Si- cut|* e- rat|in prin- ci- pi-|o, et nunc, et|sem\- *|
 (G,,8 A,,8) | z4 A,,4 A,,4 A,,2 A,,2 | A,,8 z4 A,,4 | A,,4 F,,4 (G,,8 | A,,8) G,,8 | %72
w: per, *|et in sae- cu-|la sae-|cu- lo- rum,|* A-|
 F,,8 F,6 F,2 | D,4 D,4 =B,,4 C,4 | z4 A,,4 B,,4 C,4 | D,8 B,,8 | F,,16 |] %77
w: men, sae- cu-|lo- rum, A- men,|sae- cu- lo-|rum, A-|men.|

